src/assets/images/toolbox/tailwind.svg

<svg
  width="40"
  height="24"
  viewBox="0 0 40 24"
  fill="transparent"
  xmlns="http://www.w3.org/2000/svg">
  <path
    fill="url(#paint0_linear_11_328)"
    d="M20 0C14.6667 0 11.3333 2.66672 10 8C12 5.33328 14.3333 4.33328 17 5C18.5214 5.38031 19.6089 6.48422 20.8127 7.70594C22.7736 9.69641 25.043 12 30 12C35.3333 12 38.6667 9.33328 40 4C38 6.66672 35.6667 7.66672 33 7C31.4786 6.61969 30.3911 5.51578 29.1873 4.29406C27.2264 2.30359 24.957 0 20 0ZM10 12C4.66672 12 1.33328 14.6667 0 20C2 17.3333 4.33328 16.3333 7 17C8.52141 17.3803 9.60891 18.4842 10.8127 19.7059C12.7736 21.6964 15.043 24 20 24C25.3333 24 28.6667 21.3333 30 16C28 18.6667 25.6667 19.6667 23 19C21.4786 18.6197 20.3911 17.5158 19.1873 16.2941C17.2264 14.3036 14.957 12 10 12Z"
  />
  <defs>
    <linearGradient
      id="paint0_linear_11_328"
      x1="-1.1112"
      y1="7.68"
      x2="33.4353"
      y2="27.5989"
      gradientUnits="userSpaceOnUse">
      <stop
        stop-color="#2298BD"
      />
      <stop
        offset="1"
        stop-color="#0ED7B5"
      />
    </linearGradient>
  </defs>
</svg>

<svg xmlns="http://www.w3.org/2000/svg" width="40" height="24" fill="transparent" xmlns:v="https://vecta.io/nano">
  <path fill="url(#A)"
    d="M20 0c-5.333 0-8.667 2.667-10 8 2-2.667 4.333-3.667 7-3 1.521.38 2.609 1.484 3.813 2.706C22.774 9.696 25.043 12 30 12c5.333 0 8.667-2.667 10-8-2 2.667-4.333 3.667-7 3-1.521-.38-2.609-1.484-3.813-2.706C27.226 2.304 24.957 0 20 0zM10 12c-5.333 0-8.667 2.667-10 8 2-2.667 4.333-3.667 7-3 1.521.38 2.609 1.484 3.813 2.706C12.774 21.696 15.043 24 20 24c5.333 0 8.667-2.667 10-8-2 2.667-4.333 3.667-7 3-1.521-.38-2.609-1.484-3.813-2.706C17.226 14.304 14.957 12 10 12z" />
  <defs>
    <linearGradient id="A" x1="-1.111" y1="7.68" x2="33.435" y2="27.599" gradientUnits="userSpaceOnUse">
      <stop stop-color="#2298bd" />
      <stop offset="1" stop-color="#0ed7b5" />
    </linearGradient>
  </defs>
</svg>
